X: 11
T:Les Trois Canards
M:2/4
L:1/16
C:Blanc
S:French Creek
K:G dorian
d2c4B2|A3G ^F2G2|AGAB A2B2|ABAG ^F2D2|d2 c4B2|!
A3G ^F2G2|AGAB A2^F2|G8:||B2 A4B2|G3G ^F2G2|AGAB A2B2|!
ABAG ^F2D2|B2A4B2|G3G ^F2G2|AGAB A2^F2|G8:||
